X: 12182
T: Eyam
R: polka
M: 2/4
K: Gmajor
|:"G"BB A>B|"D7"cA FA|"G"G>A Bd|"D7"cA d2|"G"BB A>B|"D7"cA FA|"G"G>A Bd|"D7"cA "G"G2:|
|:"Am"AA A>B|"Am"ce ce|"Am"ce "G"dB|"Am"cA A2|"Am"AA A>B|"Am"ce ce|"Am"ce "G"dB|"Am"cA "G"G2:|

